X:1
T:Main
M:4/4
Q:1/4=100
K:C
[A,CE]A,A,A, & e2cz/e/ | [G,B,D]B,B,G, & G2dd   | E,E,E,E, & zzg/g/z       | CF,F,F, & F/zF/A/zz/|
[A,CE]A,A,A, & c2ee/A/ | [G,B,D]B,B,G, & BBzz/d/| E,E,E,E, & zz/e/z/g/z/g/ | CF,F,F, & f/f/fCz/A/|
[A,CE]A,A,A, & e2cz/e/ | [G,B,D]B,B,G, & d/z/dGz| E,E,E,E, & zz/e/e/zz/    | CF,F,F, & f2Az/F/   |
[A,CE]ECE    & c/zc/Ae | [G,B,D]B,B,G, & B/zB/G2| [E,G,G,G,]4 & G/G/zE2    | E,/G,/[CEG]3

